!!!COM: Ockeghem, Johannes
!!!CDT: ~1425-1497/02/06
!!!OTL: Aultre Venus
!!!AGN: Song; Chanson
!!!SCT: Ock3001
!!!SCA: Ock3001
!!!voices: 3
**kern	**text	**kern	**text	**kern	**text
*staff3	*staff3	*staff2	*staff2	*staff1	*staff1
*Ivox	*	*Ivox	*	*Ivox	*
*I"Contra	*	*I"Tenor	*	*I"Discantus	*
*I'C	*	*I'T	*	*I'D	*
*clefGv2	*	*clefGv2	*	*clefG2	*
*k[b-e-]	*	*k[b-e-]	*	*k[b-e-]	*
*M2/1	*	*M2/1	*	*M2/1	*
*met(C|)	*	*met(C|)	*	*met(C|)	*
*>A	*>A	*>A	*>A	*>A	*>A
!!LO:LB:g=z
=1-	=1-	=1-	=1-	=1-	=1-
!	!	!	!	!LO:TX:Z=56:t=Rondeau	!
!!LO:TX:X=-70:Z=26:t=[Flat signatures mostly editorial. Unique source (Florence 2794) includes only one B-flat signature, in tenor.]
0BB-	-Aul-	0B-	Aul-	0f	Aul-
=2	=2	=2	=2	=2	=2
1D	-tre	0B-	-tre	1d	-tre
[1E-	Ve-	.	.	[1g	Ve-
=3	=3	=3	=3	=3	=3
2E-/]	.	0B-	Ve-	2g/]	.
2D/	.	.	.	4f/	.
.	.	.	.	4e-/	.
1BB-	-nus	.	.	1d	.
=4	=4	=4	=4	=4	=4
1r	.	1d	-nus	1f	-nus
1AA	es-	1c	es-	1e-	es-
=5	=5	=5	=5	=5	=5
1BB-	-tes	1B-	-tes	2d/	-tes
.	.	.	.	2B-/	.
1F	.	2A/	.	1c	.
.	.	2F/	.	.	.
=6	=6	=6	=6	=6	=6
2r	.	1.G	.	2B-/	sans
2BB-/	sans	.	.	2d/	.
2C/	.	.	.	2e-/	.
2D/	.	2F/	sans	[2f/	fail-
=7	=7	=7	=7	=7	=7
2BB-/	fail-	1B-	fail-	2f/]	.
1D	.	.	.	4e-/	.
.	.	.	.	4d/	.
.	.	[1A	-le	2.f/	.
2E-/	.	.	.	.	.
.	.	.	.	4e-/	.
=8	=8	=8	=8	=8	=8
1F	-le	1A]	.	1c	-le
[1c	Plus	1A	Plus	2r	.
.	.	.	.	2c/	Plus
=9	=9	=9	=9	=9	=9
2c\]	.	1A	que	1f	que
2d\	que	.	.	.	.
1eni	nul-	2.B-\	nulle	1g	nul-
.	.	4A/	.	.	.
=10	=10	=10	=10	=10	=10
2.f\	-le aul-	0F	.	1a	-le aul-
4eni\	.	.	.	.	.
2d\	.	.	.	1a	-tre
2c\	.	.	.	.	.
=11	=11	=11	=11	=11	=11
1d	-tre	1r	.	1.a	cre-
1c	.	1F	aul-	.	.
.	.	.	.	4g/	.
.	.	.	.	4a/	.
=12	=12	=12	=12	=12	=12
2r	.	1G	-tre-	1b-	-a-
2B-\	cre-	.	.	.	.
2c\	-a-	2F/	-cre-	2a/	.
2d\	.	2D/	.	2f/	.
=13	=13	=13	=13	=13	=13
2.B-\	.	1E-	-a-	2.g/	.
8A/L	.	.	.	8f/L	.
8G/J	.	.	.	8g/J	.
2F/	.	1F	.	1a	.
2A/	.	.	.	.	.
=14	=14	=14	=14	=14	=14
2B-\	.	2D/	.	2f/	.
2G/	.	2E-/	.	2.g/	.
2c\	.	2C/	.	.	.
.	.	.	.	8f/L	.
.	.	.	.	8e-/J	.
2A/	.	2F/	.	4d/	.
.	.	.	.	4c/	.
=15	=15	=15	=15	=15	=15
2B-\	.	2E-/	.	1g	.
2d\	.	2B-\	.	.	.
2c\	.	2A/	.	2f/	-tu-
[2B-\	-tu-	[2G/	-tu-	[2e-/	.
=16	=16	=16	=16	=16	=16
2B-\]	.	2G/]	.	2e-/]	.
2A/	.	2F/	.	1d	.
2.G/	.	1E-	-re,	.	.
.	.	.	.	2c/	.
4A/	.	.	.	.	.
=17	=17	=17	=17	=17	=17
4B-\	.	2r	.	0d;	-re;
4c\	.	.	.	.	.
1d	-re,	2D;/	cre-	.	.
.	.	2.F/	-a-	.	.
2B-\	cre-	.	.	.	.
.	.	4G/	.	.	.
=18	=18	=18	=18	=18	=18
2A;/	-a-	2A/	.	0r	.
2G/	.	2B-\	.	.	.
2F/	.	2A/	.	.	.
[2G/	-tu-	[2B-\	-tu-	.	.
=19	=19	=19	=19	=19	=19
*>B	*>B	*>B	*>B	*>B	*>B
*	*	*	*	*k[b-]	*
2G/]	.	2B-\]	.	1g	De
2E-/	.	2G/	.	.	.
1D	re;	1F#i	.	1a	.
=20	=20	=20	=20	=20	=20
2r	.	1G	re;	1b-	corps,
2d\	de	.	.	.	.
2c\	beaul-	1r	.	2a/	de
2B-\	.	.	.	[2b-\	beaul-
=21	=21	=21	=21	=21	=21
*	*	*k[b-]	*	*	*
2G/	.	4.G/	beaul-	2b-\]	.
.	.	8A/	.	.	.
4F/	.	4B-\	.	4a/	.
4E-/	.	4c\	.	4g/	.
2D/	-t&eacute;,	2d\	-t&eacute;,	4.f/	-t&eacute;,
.	.	.	.	8g/	.
2F/	.	2D/	.	4a/	.
.	.	.	.	4b-\	.
=22	=22	=22	=22	=22	=22
*k[b-]	*	*	*	*	*
2C/	.	2r	.	2.cc\	.
2r	.	1d	de	.	.
.	.	.	.	4a/	.
2D/	de	.	.	2b-\	.
[2F/	.	[2c\	.	[2a/	.
=23	=23	=23	=23	=23	=23
2F/]	.	4c\]	.	4a/]	.
.	.	4B-\	.	4g/	.
2G/	fi-	2G/	fi-	2g/	.
1D	-gu-	2.A/	-gu-	2r	.
.	.	.	.	[2f/	de
.	.	4F/	.	.	.
=24	=24	=24	=24	=24	=24
2C/	.	2E/	.	4f/]	.
.	.	.	.	4g/	.
1c	.	2F/	.	1a	.
.	.	1D	.	.	.
2B-\	.	.	.	4g/	fi-
.	.	.	.	4f/	.
=25	=25	=25	=25	=25	=25
2c\	.	2C/	.	2e/	-gu-
2C/	.	1c	.	2c/	.
1G	-re	.	.	1d	.
.	.	2Bni\	.	.	.
=26	=26	=26	=26	=26	=26
2r	.	1.c	.	1c	-re
1A	La	.	.	.	.
.	.	.	.	1r	.
2F/	.	2A/	.	.	.
=27	=27	=27	=27	=27	=27
1c	.	1A	.	1f	La
2d\	sem-	2.B-\	.	1g	sem-
2c\	.	.	.	.	.
.	.	4A/	.	.	.
=28	=28	=28	=28	=28	=28
2.f\	-blez	1F	-re	0a	-blez
8e\L	.	.	.	.	.
8d\J	.	.	.	.	.
1c	.	1r	.	.	.
=29	=29	=29	=29	=29	=29
0F	.	2c\	La	1a	et
.	.	2d\	.	.	.
.	.	2c\	sem-	1a	de
.	.	[2f\	-blez	.	.
=30	=30	=30	=30	=30	=30
2r	.	2f\]	.	1a	mes-
1f	et	2F/	et	.	.
.	.	2D/	de	2b-\	.
4e\	de	2E/	.	[2cc\	.
4d\	.	.	.	.	.
=31	=31	=31	=31	=31	=31
2c\	mes-	1F	mes-	2cc\]	.
2A/	.	.	.	1f	.
1G	.	1C	.	.	.
.	.	.	.	2e/	.
=32	=32	=32	=32	=32	=32
1A	-mes	1F	-mes	2d/	-mes
.	.	.	.	2c/	.
2c\	tail-	2A/	tail-	2.f/	tail-
[2d\	.	[2B-\	.	.	.
.	.	.	.	8g/L	.
.	.	.	.	8a/J	.
=33	=33	=33	=33	=33	=33
2d\]	.	2B-\]	.	2.b-\	.
1.e	.	2G/	.	.	.
.	.	.	.	8a/L	.
.	.	.	.	8b-/J	.
.	.	2c\	.	2a/	.
.	.	2C/	.	[2g/	.
=34	=34	=34	=34	=34	=34
1.c	.	1F	.	4g/]	.
.	.	.	.	4f/	.
.	.	.	.	1f	.
.	.	1G	.	.	.
2B-\	.	.	.	2e/	.
=35	=35	=35	=35	=35	=35
0cl	-le.	0Fl	-le.	0fl	-le.
==	==	==	==	==	==
!!!RDF**kern: l=long note in original notation
!!!RDF**kern: i=editorial accidental
!!!ENC: Chris Gage 06-13-2012
!!!END: 2015/10/29/
!!!EED: Jesse Rodin
!!!EEV: 2015/10/31/
!!!ONB: Translated from MusicXML and edited on 2015/10/31/ by Craig Sapp
!!muse2ps: C^@{COM}^i2I150v100,100,120Q16z18c66l2600
!!!COM: Ockeghem, Johannes
!!!CDT: ~1425-1497/02/06
!!!OTL: Aultre Venus
!!!AGN: Song; Chanson
!!!SCT: Ock3001
!!!SCA: Ock3001
!!!voices: 3
*thru	*thru	*thru	*thru	*thru	*thru
*staff3	*staff3	*staff2	*staff2	*staff1	*staff1
*Ivox	*	*Ivox	*	*Ivox	*
*I"Contra	*	*I"Tenor	*	*I"Discantus	*
*I'C	*	*I'T	*	*I'D	*
*clefGv2	*	*clefGv2	*	*clefG2	*
*k[b-e-]	*	*k[b-e-]	*	*k[b-e-]	*
*M2/1	*	*M2/1	*	*M2/1	*
*met(C|)	*	*met(C|)	*	*met(C|)	*
*>A	*>A	*>A	*>A	*>A	*>A
!!LO:LB:g=z
=36-	=36-	=36-	=36-	=36-	=36-
!	!	!	!	!LO:TX:Z=56:t=Rondeau	!
!!LO:TX:X=-70:Z=26:t=[Flat signatures mostly editorial. Unique source (Florence 2794) includes only one B-flat signature, in tenor.]
0BB-	Ce-	0B-	Ce-	0f	Ce-
=37	=37	=37	=37	=37	=37
1D	-luy	0B-	-luy	1d	-luy
[1E-	qui	.	.	[1g	qui
=38	=38	=38	=38	=38	=38
2E-/]	.	0B-	qui	2g/]	.
2D/	.	.	.	4f/	.
.	.	.	.	4e-/	.
1BB-	.	.	.	1d	.
=39	=39	=39	=39	=39	=39
1r	.	1d	les	1f	les
1AA	les	1c	a-	1e-	a-
=40	=40	=40	=40	=40	=40
1BB-	a-	1B-	-mours	2d/	-mours
.	.	.	.	2B-/	.
1F	-mours	2A/	.	1c	.
.	.	2F/	.	.	.
=41	=41	=41	=41	=41	=41
2r	.	1.G	.	2B-/	de-
2BB-/	de-	.	.	2d/	.
2C/	.	.	.	2e-/	.
2D/	.	2F/	de-	[2f/	-tail-
=42	=42	=42	=42	=42	=42
2BB-/	-tail-	1B-	-tail-	2f/]	.
1D	.	.	.	4e-/	.
.	.	.	.	4d/	.
.	.	[1A	-le	2.f/	.
2E-/	.	.	.	.	.
.	.	.	.	4e-/	.
=43	=43	=43	=43	=43	=43
1F	-le	1A]	.	1c	-le
[1c	Peult	1A	Peult	2r	.
.	.	.	.	2c/	Peult
=44	=44	=44	=44	=44	=44
2c\]	.	1A	de	1f	de
2d\	de	.	.	.	.
1eni	vous	2.B-\	vous	1g	vous
.	.	4A/	.	.	.
=45	=45	=45	=45	=45	=45
2.f\	di-	0F	.	1a	di-
4eni\	.	.	.	.	.
2d\	.	.	.	1a	-re
2c\	.	.	.	.	.
=46	=46	=46	=46	=46	=46
1d	-re	1r	.	1.a	par
1c	.	1F	di-	.	.
.	.	.	.	4g/	.
.	.	.	.	4a/	.
=47	=47	=47	=47	=47	=47
2r	.	1G	-re	1b-	droic-
2B-\	par	.	.	.	.
2c\	.	2F/	par	2a/	-tu-
2d\	droic-	2D/	.	2f/	.
=48	=48	=48	=48	=48	=48
2.B-\	-tu-	1E-	droic-	2.g/	.
8A/L	.	.	.	8f/L	.
8G/J	.	.	.	8g/J	.
2F/	.	1F	-tu-	1a	.
2A/	.	.	.	.	.
=49	=49	=49	=49	=49	=49
2B-\	.	2D/	.	2f/	.
2G/	.	2E-/	.	2.g/	.
2c\	.	2C/	.	.	.
.	.	.	.	8f/L	.
.	.	.	.	8e-/J	.
2A/	.	2F/	.	4d/	.
.	.	.	.	4c/	.
=50	=50	=50	=50	=50	=50
2B-\	.	2E-/	.	1g	.
2d\	.	2B-\	.	.	.
2c\	.	2A/	.	2f/	.
[2B-\	.	[2G/	.	[2e-/	.
=51	=51	=51	=51	=51	=51
2B-\]	.	2G/]	.	2e-/]	.
2A/	.	2F/	.	1d	.
2.G/	.	1E-	.	.	.
.	.	.	.	2c/	.
4A/	.	.	.	.	.
=52	=52	=52	=52	=52	=52
4B-\	.	2r	.	0d;	-re:
4c\	.	.	.	.	.
1d	.	2D;/	-re:	.	.
.	.	2.F/	&	.	.
2B-\	.	.	.	.	.
.	.	4G/	.	.	.
=53	=53	=53	=53	=53	=53
2A;/	-re:	2A/	.	0r	.
2G/	&	2B-\	.	.	.
2F/	.	2A/	.	.	.
2G/	.	2B-\	.	.	.
=	=	=	=	=	=
!!!RDF**kern: l=long note in original notation
!!!RDF**kern: i=editorial accidental
!!!ENC: Chris Gage 06-13-2012
!!!END: 2015/10/29/
!!!EED: Jesse Rodin
!!!EEV: 2015/10/31/
!!!ONB: Translated from MusicXML and edited on 2015/10/31/ by Craig Sapp
!!muse2ps: C^@{COM}^i2I150v100,100,120Q16z18c66l2600
!!!COM: Ockeghem, Johannes
!!!CDT: ~1425-1497/02/06
!!!OTL: Aultre Venus
!!!AGN: Song; Chanson
!!!SCT: Ock3001
!!!SCA: Ock3001
!!!voices: 3
*thru	*thru	*thru	*thru	*thru	*thru
*staff3	*staff3	*staff2	*staff2	*staff1	*staff1
*Ivox	*	*Ivox	*	*Ivox	*
*I"Contra	*	*I"Tenor	*	*I"Discantus	*
*I'C	*	*I'T	*	*I'D	*
*clefGv2	*	*clefGv2	*	*clefG2	*
*k[b-e-]	*	*k[b-e-]	*	*k[b-e-]	*
*M2/1	*	*M2/1	*	*M2/1	*
*met(C|)	*	*met(C|)	*	*met(C|)	*
*>A	*>A	*>A	*>A	*>A	*>A
!!LO:LB:g=z
=54-	=54-	=54-	=54-	=54-	=54-
!	!	!	!	!LO:TX:Z=56:t=Rondeau	!
!!LO:TX:X=-70:Z=26:t=[Flat signatures mostly editorial. Unique source (Florence 2794) includes only one B-flat signature, in tenor.]
0BB-	-Aul-	0B-	Aul-	0f	Aul-
=55	=55	=55	=55	=55	=55
1D	-tre	0B-	-tre	1d	-tre
[1E-	Ve-	.	.	[1g	Ve-
=56	=56	=56	=56	=56	=56
2E-/]	.	0B-	Ve-	2g/]	.
2D/	.	.	.	4f/	.
.	.	.	.	4e-/	.
1BB-	-nus	.	.	1d	.
=57	=57	=57	=57	=57	=57
1r	.	1d	-nus	1f	-nus
1AA	es-	1c	es-	1e-	es-
=58	=58	=58	=58	=58	=58
1BB-	-tes	1B-	-tes	2d/	-tes
.	.	.	.	2B-/	.
1F	.	2A/	.	1c	.
.	.	2F/	.	.	.
=59	=59	=59	=59	=59	=59
2r	.	1.G	.	2B-/	sans
2BB-/	sans	.	.	2d/	.
2C/	.	.	.	2e-/	.
2D/	.	2F/	sans	[2f/	fail-
=60	=60	=60	=60	=60	=60
2BB-/	fail-	1B-	fail-	2f/]	.
1D	.	.	.	4e-/	.
.	.	.	.	4d/	.
.	.	[1A	-le	2.f/	.
2E-/	.	.	.	.	.
.	.	.	.	4e-/	.
=61	=61	=61	=61	=61	=61
1F	-le	1A]	.	1c	-le
[1c	Plus	1A	Plus	2r	.
.	.	.	.	2c/	Plus
=62	=62	=62	=62	=62	=62
2c\]	.	1A	que	1f	que
2d\	que	.	.	.	.
1eni	nul-	2.B-\	nulle	1g	nul-
.	.	4A/	.	.	.
=63	=63	=63	=63	=63	=63
2.f\	-le aul-	0F	.	1a	-le aul-
4eni\	.	.	.	.	.
2d\	.	.	.	1a	-tre
2c\	.	.	.	.	.
=64	=64	=64	=64	=64	=64
1d	-tre	1r	.	1.a	cre-
1c	.	1F	aul-	.	.
.	.	.	.	4g/	.
.	.	.	.	4a/	.
=65	=65	=65	=65	=65	=65
2r	.	1G	-tre-	1b-	-a-
2B-\	cre-	.	.	.	.
2c\	-a-	2F/	-cre-	2a/	.
2d\	.	2D/	.	2f/	.
=66	=66	=66	=66	=66	=66
2.B-\	.	1E-	-a-	2.g/	.
8A/L	.	.	.	8f/L	.
8G/J	.	.	.	8g/J	.
2F/	.	1F	.	1a	.
2A/	.	.	.	.	.
=67	=67	=67	=67	=67	=67
2B-\	.	2D/	.	2f/	.
2G/	.	2E-/	.	2.g/	.
2c\	.	2C/	.	.	.
.	.	.	.	8f/L	.
.	.	.	.	8e-/J	.
2A/	.	2F/	.	4d/	.
.	.	.	.	4c/	.
=68	=68	=68	=68	=68	=68
2B-\	.	2E-/	.	1g	.
2d\	.	2B-\	.	.	.
2c\	.	2A/	.	2f/	-tu-
[2B-\	-tu-	[2G/	-tu-	[2e-/	.
=69	=69	=69	=69	=69	=69
2B-\]	.	2G/]	.	2e-/]	.
2A/	.	2F/	.	1d	.
2.G/	.	1E-	.	.	.
.	.	.	.	2c/	.
4A/	.	.	.	.	.
=70	=70	=70	=70	=70	=70
4B-\	.	2r	.	0d;	-re;
4c\	.	.	.	.	.
1d	.	2D;/	-(re;)	.	.
.	.	2.F/	.	.	.
2B-\	.	.	.	.	.
.	.	4G/	.	.	.
=71	=71	=71	=71	=71	=71
2A;/	-(re;)	2A/	.	0r	.
2G/	.	2B-\	.	.	.
2F/	.	2A/	.	.	.
2G/	.	2B-\	.	.	.
=	=	=	=	=	=
!!!RDF**kern: l=long note in original notation
!!!RDF**kern: i=editorial accidental
!!!ENC: Chris Gage 06-13-2012
!!!END: 2015/10/29/
!!!EED: Jesse Rodin
!!!EEV: 2015/10/31/
!!!ONB: Translated from MusicXML and edited on 2015/10/31/ by Craig Sapp
!!muse2ps: C^@{COM}^i2I150v100,100,120Q16z18c66l2600
!!!COM: Ockeghem, Johannes
!!!CDT: ~1425-1497/02/06
!!!OTL: Aultre Venus
!!!AGN: Song; Chanson
!!!SCT: Ock3001
!!!SCA: Ock3001
!!!voices: 3
*staff3	*staff3	*staff2	*staff2	*staff1	*staff1
*Ivox	*	*Ivox	*	*Ivox	*
*I"Contra	*	*I"Tenor	*	*I"Discantus	*
*I'C	*	*I'T	*	*I'D	*
*clefGv2	*	*clefGv2	*	*clefG2	*
*k[b-e-]	*	*k[b-e-]	*	*k[b-e-]	*
*M2/1	*	*M2/1	*	*M2/1	*
*met(C|)	*	*met(C|)	*	*met(C|)	*
*>A	*>A	*>A	*>A	*>A	*>A
!!LO:LB:g=z
=72-	=72-	=72-	=72-	=72-	=72-
!	!	!	!	!LO:TX:Z=56:t=Rondeau	!
!!LO:TX:X=-70:Z=26:t=[Flat signatures mostly editorial. Unique source (Florence 2794) includes only one B-flat signature, in tenor.]
0BB-	Qui	0B-	Qui	0f	Qui
=73	=73	=73	=73	=73	=73
1D	con-	0B-	con-	1d	con-
[1E-	-tre-	.	.	[1g	-tre-
=74	=74	=74	=74	=74	=74
2E-/]	.	0B-	-tre-	2g/]	.
2D/	.	.	.	4f/	.
.	.	.	.	4e-/	.
1BB-	-dit,	.	.	1d	.
=75	=75	=75	=75	=75	=75
1r	.	1d	-dit,	1f	-dit,
1AA	j'of-	1c	j'of-	1e-	j'of-
=76	=76	=76	=76	=76	=76
1BB-	-fre	1B-	-fre	2d/	-fre
.	.	.	.	2B-/	.
1F	.	2A/	.	1c	.
.	.	2F/	.	.	.
=77	=77	=77	=77	=77	=77
2r	.	1.G	.	2B-/	ba-
2BB-/	ba-	.	.	2d/	.
2C/	.	.	.	2e-/	.
2D/	.	2F/	ba-	[2f/	-tail-
=78	=78	=78	=78	=78	=78
2BB-/	-tail-	1B-	-tail-	2f/]	.
1D	.	.	.	4e-/	.
.	.	.	.	4d/	.
.	.	[1A	-le	2.f/	.
2E-/	.	.	.	.	.
.	.	.	.	4e-/	.
=79	=79	=79	=79	=79	=79
1F	-le	1A]	.	1c	-le
[1c	A	1A	A	2r	.
.	.	.	.	2c/	A
=80	=80	=80	=80	=80	=80
2c\]	.	1A	oul-	1f	oul-
2d\	.	.	.	.	.
1eni	oul-	2.B-\	-tran-	1g	-tran-
.	.	4A/	.	.	.
=81	=81	=81	=81	=81	=81
2.f\	-tran-	0F	-ce	1a	-ce et
4eni\	.	.	.	.	.
2d\	.	.	.	1a	a
2c\	.	.	.	.	.
=82	=82	=82	=82	=82	=82
1d	-ce et	1r	.	1.a	des-
1c	.	1F	et	.	.
.	.	.	.	4g/	.
.	.	.	.	4a/	.
=83	=83	=83	=83	=83	=83
2r	.	1G	a	1b-	-me-
2B-\	a	.	.	.	.
2c\	des-	2F/	des-	2a/	-su-
2d\	-me-	2D/	.	2f/	.
=84	=84	=84	=84	=84	=84
2.B-\	-su-	1E-	-me-	2.g/	.
8A/L	.	.	.	8f/L	.
8G/J	.	.	.	8g/J	.
2F/	.	1F	-su-	1a	.
2A/	.	.	.	.	.
=85	=85	=85	=85	=85	=85
2B-\	.	2D/	.	2f/	.
2G/	.	2E-/	.	2.g/	.
2c\	.	2C/	.	.	.
.	.	.	.	8f/L	.
.	.	.	.	8e-/J	.
2A/	.	2F/	.	4d/	.
.	.	.	.	4c/	.
=86	=86	=86	=86	=86	=86
2B-\	.	2E-/	.	1g	.
2d\	.	2B-\	.	.	.
2c\	.	2A/	.	2f/	.
[2B-\	.	[2G/	.	[2e-/	.
=87	=87	=87	=87	=87	=87
2B-\]	.	2G/]	.	2e-/]	.
2A/	.	2F/	.	1d	.
2.G/	.	1E-	-re,	.	.
.	.	.	.	2c/	.
4A/	.	.	.	.	.
=88	=88	=88	=88	=88	=88
4B-\	.	2r	.	0d;	-re,
4c\	.	.	.	.	.
1d	-re,	2D;/	des-	.	.
.	.	2.F/	.	.	.
2B-\	des-	.	.	.	.
.	.	4G/	.	.	.
=89	=89	=89	=89	=89	=89
2A;/	.	2A/	.	0r	.
2G/	.	2B-\	.	.	.
2F/	-me-	2A/	-me-	.	.
[2G/	-su-	[2B-\	-su-	.	.
=90	=90	=90	=90	=90	=90
*>B	*>B	*>B	*>B	*>B	*>B
*	*	*	*	*k[b-]	*
2G/]	.	2B-\]	.	1g	Main-
2E-/	.	2G/	.	.	.
1D	-re,	1F#i	.	1a	-te-
=91	=91	=91	=91	=91	=91
2r	.	1G	-re,	1b-	-nant
2d\	qu'il	.	.	.	.
2c\	.	1r	.	2a/	qu'il
2B-\	.	.	.	[2b-\	.
=92	=92	=92	=92	=92	=92
*	*	*k[b-]	*	*	*
2G/	vous	4.G/	vous	2b-\]	.
.	.	8A/	.	.	.
4F/	.	4B-\	.	4a/	vous
4E-/	.	4c\	.	4g/	.
2D/	fait	2d\	fait	4.f/	fait
.	.	.	.	8g/	.
2F/	.	2D/	.	4a/	.
.	.	.	.	4b-\	.
=93	=93	=93	=93	=93	=93
*k[b-]	*	*	*	*	*
2C/	.	2r	.	2.cc\	.
2r	.	1d	in-	.	.
.	.	.	.	4a/	.
2D/	in-	.	.	2b-\	.
[2F/	-ju-	[2c\	-ju-	[2a/	.
=94	=94	=94	=94	=94	=94
2F/]	.	4c\]	.	4a/]	.
.	.	4B-\	.	4g/	.
2G/	.	2G/	.	2g/	.
1D	.	2.A/	.	2r	.
.	.	.	.	[2f/	in-
.	.	4F/	.	.	.
=95	=95	=95	=95	=95	=95
2C/	.	2E/	.	4f/]	.
.	.	.	.	4g/	.
1c	.	2F/	.	1a	-ju-
.	.	1D	.	.	.
2B-\	.	.	.	4g/	.
.	.	.	.	4f/	.
=96	=96	=96	=96	=96	=96
2c\	.	2C/	.	2e/	.
2C/	.	1c	.	2c/	.
1G	-re,	.	.	1d	.
.	.	2Bni\	.	.	.
=97	=97	=97	=97	=97	=97
2r	.	1.c	.	1c	-re,
1A	Se	.	.	.	.
.	.	.	.	1r	.
2F/	le	2A/	.	.	.
=98	=98	=98	=98	=98	=98
1c	til-	1A	.	1f	Se
2d\	.	2.B-\	.	1g	le
2c\	.	.	.	.	.
.	.	4A/	.	.	.
=99	=99	=99	=99	=99	=99
2.f\	.	1F	-re	0a	til-
8e\L	.	.	.	.	.
8d\J	.	.	.	.	.
1c	.	1r	.	.	.
=100	=100	=100	=100	=100	=100
0F	-tre	2c\	Se	1a	-tre
.	.	2d\	le	.	.
.	.	2c\	til-	1a	tel
.	.	[2f\	.	.	.
=101	=101	=101	=101	=101	=101
2r	.	2f\]	.	1a	ne
1f	tel	2F/	-tre	.	.
.	.	2D/	tel	2b-\	vous
4e\	.	2E/	.	[2cc\	.
4d\	.	.	.	.	.
=102	=102	=102	=102	=102	=102
2c\	ne	1F	ne	2cc\]	.
2A/	.	.	.	1f	.
1G	.	1C	.	.	.
.	.	.	.	2e/	.
=103	=103	=103	=103	=103	=103
1A	vous	1F	vous	2d/	.
.	.	.	.	2c/	.
2c\	bail-	2A/	bail-	2.f/	bail-
[2d\	.	[2B-\	.	.	.
.	.	.	.	8g/L	.
.	.	.	.	8a/J	.
=104	=104	=104	=104	=104	=104
2d\]	.	2B-\]	.	2.b-\	.
1.e	.	2G/	.	.	.
.	.	.	.	8a/L	.
.	.	.	.	8b-/J	.
.	.	2c\	.	2a/	.
.	.	2C/	.	[2g/	.
=105	=105	=105	=105	=105	=105
1.c	.	1F	.	4g/]	.
.	.	.	.	4f/	.
.	.	.	.	1f	.
.	.	1G	.	.	.
2B-\	.	.	.	2e/	.
=106	=106	=106	=106	=106	=106
0cl	-le.	0Fl	-le.	0fl	-le.
==	==	==	==	==	==
!!!RDF**kern: l=long note in original notation
!!!RDF**kern: i=editorial accidental
!!!ENC: Chris Gage 06-13-2012
!!!END: 2015/10/29/
!!!EED: Jesse Rodin
!!!EEV: 2015/10/31/
!!!ONB: Translated from MusicXML and edited on 2015/10/31/ by Craig Sapp
!!muse2ps: C^@{COM}^i2I150v100,100,120Q16z18c66l2600
!!!COM: Ockeghem, Johannes
!!!CDT: ~1425-1497/02/06
!!!OTL: Aultre Venus
!!!AGN: Song; Chanson
!!!SCT: Ock3001
!!!SCA: Ock3001
!!!voices: 3
*staff3	*staff3	*staff2	*staff2	*staff1	*staff1
*Ivox	*	*Ivox	*	*Ivox	*
*I"Contra	*	*I"Tenor	*	*I"Discantus	*
*I'C	*	*I'T	*	*I'D	*
*clefGv2	*	*clefGv2	*	*clefG2	*
*k[b-e-]	*	*k[b-e-]	*	*k[b-e-]	*
*M2/1	*	*M2/1	*	*M2/1	*
*met(C|)	*	*met(C|)	*	*met(C|)	*
*>A	*>A	*>A	*>A	*>A	*>A
!!LO:LB:g=z
=107-	=107-	=107-	=107-	=107-	=107-
!	!	!	!	!LO:TX:Z=56:t=Rondeau	!
!!LO:TX:X=-70:Z=26:t=[Flat signatures mostly editorial. Unique source (Florence 2794) includes only one B-flat signature, in tenor.]
0BB-	-Aul-	0B-	Aul-	0f	Aul-
=108	=108	=108	=108	=108	=108
1D	-tre	0B-	-tre	1d	-tre
[1E-	Ve-	.	.	[1g	Ve-
=109	=109	=109	=109	=109	=109
2E-/]	.	0B-	Ve-	2g/]	.
2D/	.	.	.	4f/	.
.	.	.	.	4e-/	.
1BB-	-nus	.	.	1d	.
=110	=110	=110	=110	=110	=110
1r	.	1d	-nus	1f	-nus
1AA	es-	1c	es-	1e-	es-
=111	=111	=111	=111	=111	=111
1BB-	-tes	1B-	-tes	2d/	-tes
.	.	.	.	2B-/	.
1F	.	2A/	.	1c	.
.	.	2F/	.	.	.
=112	=112	=112	=112	=112	=112
2r	.	1.G	.	2B-/	sans
2BB-/	sans	.	.	2d/	.
2C/	.	.	.	2e-/	.
2D/	.	2F/	sans	[2f/	fail-
=113	=113	=113	=113	=113	=113
2BB-/	fail-	1B-	fail-	2f/]	.
1D	.	.	.	4e-/	.
.	.	.	.	4d/	.
.	.	[1A	-le	2.f/	.
2E-/	.	.	.	.	.
.	.	.	.	4e-/	.
=114	=114	=114	=114	=114	=114
1F	-le	1A]	.	1c	-le
[1c	Plus	1A	Plus	2r	.
.	.	.	.	2c/	Plus
=115	=115	=115	=115	=115	=115
2c\]	.	1A	que	1f	que
2d\	que	.	.	.	.
1eni	nul-	2.B-\	nulle	1g	nul-
.	.	4A/	.	.	.
=116	=116	=116	=116	=116	=116
2.f\	-le aul-	0F	.	1a	-le aul-
4eni\	.	.	.	.	.
2d\	.	.	.	1a	-tre
2c\	.	.	.	.	.
=117	=117	=117	=117	=117	=117
1d	-tre	1r	.	1.a	cre-
1c	.	1F	aul-	.	.
.	.	.	.	4g/	.
.	.	.	.	4a/	.
=118	=118	=118	=118	=118	=118
2r	.	1G	-tre-	1b-	-a-
2B-\	cre-	.	.	.	.
2c\	-a-	2F/	-cre-	2a/	-tu-
2d\	.	2D/	.	2f/	.
=119	=119	=119	=119	=119	=119
2.B-\	.	1E-	-a-	2.g/	.
8A/L	.	.	.	8f/L	.
8G/J	.	.	.	8g/J	.
2F/	.	1F	.	1a	.
2A/	.	.	.	.	.
=120	=120	=120	=120	=120	=120
2B-\	.	2D/	.	2f/	.
2G/	.	2E-/	.	2.g/	.
2c\	.	2C/	.	.	.
.	.	.	.	8f/L	.
.	.	.	.	8e-/J	.
2A/	.	2F/	.	4d/	.
.	.	.	.	4c/	.
=121	=121	=121	=121	=121	=121
2B-\	.	2E-/	.	1g	.
2d\	.	2B-\	.	.	.
2c\	.	2A/	.	2f/	.
[2B-\	-tu-	[2G/	-tu-	[2e-/	.
=122	=122	=122	=122	=122	=122
2B-\]	.	2G/]	.	2e-/]	.
2A/	.	2F/	.	1d	.
2.G/	.	1E-	-re,	.	.
.	.	.	.	2c/	.
4A/	.	.	.	.	.
=123	=123	=123	=123	=123	=123
4B-\	.	2r	.	0d;	-re;
4c\	.	.	.	.	.
1d	-re,	2D;/	cre-	.	.
.	.	2.F/	-a-	.	.
2B-\	cre-	.	.	.	.
.	.	4G/	.	.	.
=124	=124	=124	=124	=124	=124
2A;/	-a-	2A/	.	0r	.
2G/	.	2B-\	.	.	.
2F/	.	2A/	.	.	.
[2G/	-tu-	[2B-\	-tu-	.	.
=125	=125	=125	=125	=125	=125
*>B	*>B	*>B	*>B	*>B	*>B
*	*	*	*	*k[b-]	*
2G/]	.	2B-\]	.	1g	De
2E-/	.	2G/	.	.	.
1D	re;	1F#i	.	1a	.
=126	=126	=126	=126	=126	=126
2r	.	1G	re;	1b-	corps,
2d\	de	.	.	.	.
2c\	.	1r	.	2a/	de
2B-\	.	.	.	[2b-\	beaul-
=127	=127	=127	=127	=127	=127
*	*	*k[b-]	*	*	*
2G/	beaul-	4.G/	beaul-	2b-\]	.
.	.	8A/	.	.	.
4F/	.	4B-\	.	4a/	.
4E-/	.	4c\	.	4g/	.
2D/	-t&eacute;,	2d\	-t&eacute;,	4.f/	-t&eacute;,
.	.	.	.	8g/	.
2F/	.	2D/	.	4a/	.
.	.	.	.	4b-\	.
=128	=128	=128	=128	=128	=128
*k[b-]	*	*	*	*	*
2C/	.	2r	.	2.cc\	.
2r	.	1d	de	.	.
.	.	.	.	4a/	.
2D/	de	.	.	2b-\	.
[2F/	.	[2c\	.	[2a/	.
=129	=129	=129	=129	=129	=129
2F/]	.	4c\]	.	4a/]	.
.	.	4B-\	.	4g/	.
2G/	fi-	2G/	fi-	2g/	.
1D	-gu-	2.A/	-gu-	2r	.
.	.	.	.	[2f/	de
.	.	4F/	.	.	.
=130	=130	=130	=130	=130	=130
2C/	.	2E/	.	4f/]	.
.	.	.	.	4g/	.
1c	.	2F/	.	1a	.
.	.	1D	.	.	.
2B-\	.	.	.	4g/	fi-
.	.	.	.	4f/	.
=131	=131	=131	=131	=131	=131
2c\	.	2C/	.	2e/	-gu-
2C/	.	1c	.	2c/	.
1G	-re	.	.	1d	.
.	.	2Bni\	.	.	.
=132	=132	=132	=132	=132	=132
2r	.	1.c	.	1c	-re
1A	La	.	.	.	.
.	.	.	.	1r	.
2F/	.	2A/	.	.	.
=133	=133	=133	=133	=133	=133
1c	.	1A	.	1f	La
2d\	sem-	2.B-\	.	1g	sem-
2c\	.	.	.	.	.
.	.	4A/	.	.	.
=134	=134	=134	=134	=134	=134
2.f\	-blez	1F	-re	0a	-blez
8e\L	.	.	.	.	.
8d\J	.	.	.	.	.
1c	.	1r	.	.	.
=135	=135	=135	=135	=135	=135
0F	.	2c\	La	1a	et
.	.	2d\	.	.	.
.	.	2c\	sem-	1a	de
.	.	[2f\	-blez	.	.
=136	=136	=136	=136	=136	=136
2r	.	2f\]	.	1a	mes-
1f	et	2F/	et	.	.
.	.	2D/	de	2b-\	.
4e\	de	2E/	.	[2cc\	.
4d\	.	.	.	.	.
=137	=137	=137	=137	=137	=137
2c\	mes-	1F	mes-	2cc\]	.
2A/	.	.	.	1f	.
1G	.	1C	.	.	.
.	.	.	.	2e/	.
=138	=138	=138	=138	=138	=138
1A	-mes	1F	-mes	2d/	-mes
.	.	.	.	2c/	.
2c\	tail-	2A/	tail-	2.f/	tail-
[2d\	.	[2B-\	.	.	.
.	.	.	.	8g/L	.
.	.	.	.	8a/J	.
=139	=139	=139	=139	=139	=139
2d\]	.	2B-\]	.	2.b-\	.
1.e	.	2G/	.	.	.
.	.	.	.	8a/L	.
.	.	.	.	8b-/J	.
.	.	2c\	.	2a/	.
.	.	2C/	.	[2g/	.
=140	=140	=140	=140	=140	=140
1.c	.	1F	.	4g/]	.
.	.	.	.	4f/	.
.	.	.	.	1f	.
.	.	1G	.	.	.
2B-\	.	.	.	2e/	.
=141	=141	=141	=141	=141	=141
0cl	-le.	0Fl	-le.	0fl	-le.
==	==	==	==	==	==
*-	*-	*-	*-	*-	*-
!!!RDF**kern: l=long note in original notation
!!!RDF**kern: i=editorial accidental
!!!ENC: Chris Gage 06-13-2012
!!!END: 2015/10/29/
!!!EED: Jesse Rodin
!!!EEV: 2015/10/31/
!!!ONB: Translated from MusicXML and edited on 2015/10/31/ by Craig Sapp
!!muse2ps: C^@{COM}^i2I150v110,110,120z18c66l2600c80
